X:1
T:Navidad
T:Canon de Navidad
T:Inglaterra (siglo XVIII)
%%score [ 1 2 3 4 ]
L:1/8
M:4/4
K:C
V:1 treble nm="Soprano" snm="S."
V:2 treble nm="Alto" snm="A."
V:3 treble-8 nm="Tenor" snm="T."
V:4 bass nm="Bass" snm="B."
V:1
 C2 C2 D4 | E3 D C2 z2 | E2 E2 F2 F2 | (G3 F) E4 | c4 B4 | c3 B c2 c2 | c2 (BA) (GF)(ED) | %7
w: Ya lle gó|Na vi dad,|ju bi lo sos|can _ tad:|"Glo ria|en el cie lo|y paz _ en _ la _|
 C4 C2 z2 | G4 F4 | E3 F G2 z2 | e4 d2 G2 | c4 z4 | C2 C2 D4 | E3 D C2 z2 | E2 E2 F2 F2 | G3 F E4 | %16
w: tie- rra|por lae|ter ni dad,|¡al le lu|ia!"|||||
 c4 B4 | c3 B c2 c2 | c2 BA GFED | C4 C2 z2 | G4 F4 | E3 F G2 z2 | e4 d2 G2 | c4 z4 | C2 C2 D4 | %25
w: |||||||||
 E3 D C2 z2 :| %26
w: |
V:2
 z8 | z8 | C2 C2 D4 | E3 D C2 z2 | E2 E2 F2 F2 | G3 F E4 | c4 B4 | c3 B c2 c2 | c2 BA GFED | %9
 C4 C2 z2 | G4 F4 | E3 F G2 z2 | e4 d2 G2 | c4 z4 | C2 C2 D4 | E3 D C2 z2 | E2 E2 F2 F2 | G3 F E4 | %18
 c4 B4 | c3 B c2 c2 | c2 BA GFED | C4 C2 z2 | G4 F4 | E3 F G2 z2 | e4 d2 G2 | c4 z4 :| %26
V:3
 z8 | z8 | z8 | z8 | C2 C2 D4 | E3 D C2 z2 | E2 E2 F2 F2 | G3 F E4 | c4 B4 | c3 B c2 c2 | %10
 c2 BA GFED | C4 C2 z2 | G4 F4 | E3 F G2 z2 | e4 d2 G2 | c4 z4 | C2 C2 D4 | E3 D C2 z2 | %18
 E2 E2 F2 F2 | G3 F E4 | c4 B4 | c3 B c2 c2 | c2 BA GFED | C4 C2 z2 | G4 F4 | E3 F G2 z2 :| %26
V:4
 z8 | z8 | z8 | z8 | z8 | z8 | C,2 C,2 D,4 | E,3 D, C,2 z2 | E,2 E,2 F,2 F,2 | G,3 F, E,4 | %10
 C4 B,4 | C3 B, C2 C2 | C2 B,A, G,F,E,D, | C,4 C,2 z2 | G,4 F,4 | E,3 F, G,2 z2 | E4 D2 G,2 | %17
 C4 z4 | C,2 C,2 D,4 | E,3 D, C,2 z2 | E,2 E,2 F,2 F,2 | G,3 F, E,4 | C4 B,4 | C3 B, C2 C2 | %24
 C2 B,A, G,F,E,D, | C,4 C,2 z2 :| %26

